X:1
T:Ej med klagan
T:Alice Tegnér (19864-1943)
T:Text: J L Runeberg
T:Ej med klagan
T:©PA Aglert Edition may be freely distributed, duplicated, performed and recorded
T:©PA Aglert Edition may be freely distributed, duplicated, performed and recorded
C:Alice Tegnér (19864-1943)
Z:©PA Aglert
Z:Edition may be freely distributed, duplicated, performed and recorded
%%score [ 1 2 3 4 ]
L:1/8
Q:1/4=100
M:4/4
K:D
V:1 treble nm="S"
V:2 treble nm="A"
V:3 treble-8 nm="T"
V:4 bass nm="B"
V:1
"^Con moto"!mf! F3 F | F6 E2 | E2 F2!<(! G2!<)! B2 | B4 A2 z2 | !>!B6!<(! A2!<)! | d4 z2 G2 | %6
w: Ej med|kla- gan|skall ditt min- ne|fi- ras,|ej likt|dem, som|
 A3!>(! F E2!>)! D2 | F4 E2 z2 | z4!f! c2 c2 | d6 F2 | c2 B2 B3 A |!>(! B4 A4!>)! | %12
w: går och snart skall|glöm- mas.|Så skall|fos- ter-|lan- det dig be-|grå- ta|
"^dolce" z4 A2 A2 | _B6!<(! B2!<)! | _e2 e2!>(! d2!>)! =c2 | (=c3 ^c) d2 z2 |!mf!!<(! d6!<)! d2 | %17
w: som en|af- ton|grå- ter dagg om|som- * marn,|full av|
!f! _e6!>(! _B2!>)! |!p! !courtesy!=B2!<(! B2!<)! ^d3!>)!!>(! c |!<(!!>(! (B4 e4)!<)!!>)! | %20
w: gläd- je,|lugn och ljus och|sån- *|
 B2 z2!<(! B2 c2!<)! | d2 A2!f! (f4 | d3) d!>(! B2 G2!>)! |!p! G8 | !fermata!F8 |] %25
w: ger och med|fam- nen sträckt|_ mot mor- gon-|rod-|na'n.|
V:2
 D3 D | D6 D2 | C2 ^D2!<(! E2!<)! E2 | E4 E2 z2 | z4 !>!D2!<(! D2!<)! | D4 z2 D2 | %6
w: Ej med|kla- gan|skall ditt min- ne|fi- ras,|ej likt|dem, som|
 D3!>(! D D2!>)! D2 | D4 C2 z2 | z4!f! G2 G2 | F6 D2 | E2 E2 E3 E |!>(! _E4 E4!>)! | z4 _E2 E2 | %13
w: går och snart skall|glöm- mas.|Så skall|fos- ter-|lan- det dig be-|grå- ta|som en|
 =F6!<(! F2!<)! | G2 A2!>(! A2!>)! A2 | (A2 =F2) F2 z2 |!mf!!<(! _A6!<)! =F2 |!f! _E6!>(! E2!>)! | %18
w: af- ton|grå- ter dagg om|som- * marn,|full av|gläd- je,|
!p! ^D2!<(! D2!<)!!>(! F3!>)! D |!<(!!>(! E8!<)!!>)! | E2 z2!<(! ^E2 E2!<)! | F2 F2!f! (F4 | %22
w: lugn och ljus och|sån-|ger och med|fam- nen sträckt|
 A3) D!>(! D2 D2!>)! |!p! C8 | !fermata!D8 |] %25
w: _ mot mor- gon-|rod-|na'n.|
V:3
 A3 ^A | B6 B2 | A2 A2!<(! G2!<)! G2 | G4 G2 z2 | z4 !>!F2!<(! F2!<)! | G4 z2 B2 | %6
w: Ej med|kla- gan|skall ditt min- ne|fi- ras,|ej likt|dem, som|
 A3!>(! A B2!>)! B2 | A4 A2 z2 | z4!f! e2 e2 | d6 d2 | d2 d2 c3 c |!>(! =c4 c4!>)! | z4 =c2 c2 | %13
w: går och snart skall|glöm- mas.|Så skall|fos- ter-|lan- det dig be-|grå- ta|som en|
 d6!<(! d2!<)! | =c2 c2!>(! =f2!>)! _e2 | _e4 d2 z2 |!mf!!<(! =f6!<)! _B2 |!f! _B6!>(! B2!>)! | %18
w: af- ton|grå- ter dagg om|som- marn,|full av|gläd- je,|
!p! A2!<(! A2!<)!!>(! !courtesy!=B3!>)! B |!<(!!>(! B8!<)!!>)! | B2 z2!<(! d2 d2!<)! | %21
w: lugn och ljus och|sån-|ger och med|
 d2 d2!f! (d4 | A3) A!>(! G2 B2!>)! |!p! (B4 A4) | !fermata!A8 |] %25
w: fam- nen sträckt|_ mot mor- gon-|rod- *|na'n.|
V:4
 D,3 D, | G,,4 G,4 | G,2 F,2!<(! E,2!<)! D,2 | C,4 C,2 z2 | z4 !>!=C,2!<(! C,2!<)! | B,,4 z2 B,,2 | %6
w: Ej med|kla- gan|skall ditt min- ne|fi- ras,|ej likt|dem, som|
 F,,3!>(! F,, G,,2!>)! ^G,,2 | A,,4 A,,2 z2 |!f! A,6 ^A,2 | (B,4 !courtesy!=A,2) A,2 | %10
w: går och snart skall|glöm- mas.|Så skall|fos- * ter-|
 ^G,2 G,2 =G,3 G, |!>(! !courtesy!^F,4 F,4!>)! | =F,6 F,2 | =F,6!<(! F,2!<)! | %14
w: lan- det dig be-|grå- ta|som en|af- ton|
 =F,2 F,2!>(! F,2!>)! F,2 | _B,4 B,2 z2 |!mf!!<(! _B,,6!<)! _A,2 |!f! G,6!>(! G,2!>)! | %18
w: grå- ter dagg om|som- marn,|full av|gläd- je,|
!p! !courtesy!^F,2!<(! F,2!<)!!>(! A,3!>)! A, |!<(!!>(! ^G,8!<)!!>)! | ^G,2 z2!<(! G,2 G,2!<)! | %21
w: lugn och ljus och|sån-|ger och med|
 A,2 A,2!f! D,2 A,,2 | F,3 F,,!>(! G,,2 [G,,E,]2!>)! |!p! [A,,E,]8 | !fermata!D,8 |] %25
w: fam- nen fam- nen|sträckt mot mor- gon-|rod-|na'n.|

